**harm	**harte	**timestamp	**phrase	**leadinstrument	**kern
*M4/4	*M4/4	*	*	*	*
*A:	*A:	*	*	*	*A:
1r;	N	0	.	r	1r;
=1	=1	=1	=1	=1	=1
*>A_intro	*>A_intro	*>A_intro	*>A_intro	*>A_intro	*>A_intro
2I	A:maj	0.209	newline	r	2A 2cc# 2ee
2-VII7	G:maj9	1.707	.	r	2G 2b 2dd 2ff#
=2	=2	=2	=2	=2	=2
1IV	D:maj	3.205	.	r	1D 1f# 1a
=3	=3	=3	=3	=3	=3
2I	A:maj	6.202	.	r	2A 2cc# 2ee
2-VII7	G:maj9	7.7	.	r	2G 2b 2dd 2ff#
=4	=4	=4	=4	=4	=4
2IV	D:maj	9.199	.	r	2D 2f# 2a
2I	A:maj	10.697	.	r	2A 2cc# 2ee
=5	=5	=5	=5	=5	=5
*>A_verse	*>A_verse	*>A_verse	*>A_verse	*>A_verse	*>A_verse
2I	A:maj	12.195	newline	voice	2A 2cc# 2ee
2-VII	G:maj	13.678	.	voice	2G 2b 2dd
=6	=6	=6	=6	=6	=6
1IV	D:maj	15.162	.	voice	1D 1f# 1a
=7	=7	=7	=7	=7	=7
2I	A:maj	18.128	.	voice	2A 2cc# 2ee
2-VII	G:maj	19.611	.	voice	2G 2b 2dd
=8	=8	=8	=8	=8	=8
2IV	D:maj	21.094	.	voice	2D 2f# 2a
2I	A:maj	22.578	.	voice	2A 2cc# 2ee
=9	=9	=9	=9	=9	=9
2I	A:maj	24.061	newline	voice	2A 2cc# 2ee
2-VII	G:maj	25.541	.	voice	2G 2b 2dd
=10	=10	=10	=10	=10	=10
1IV	D:maj	27.022	.	voice	1D 1f# 1a
=11	=11	=11	=11	=11	=11
2I	A:maj	29.982	.	voice	2A 2cc# 2ee
2-VII	G:maj	31.462	.	voice	2G 2b 2dd
=12	=12	=12	=12	=12	=12
2IV	D:maj	32.943	.	voice	2D 2f# 2a
2I	A:maj	34.423	.	voice	2A 2cc# 2ee
=13	=13	=13	=13	=13	=13
2I	A:maj	35.903	newline	voice	2A 2cc# 2ee
2-VII	G:maj	37.375	.	voice	2G 2b 2dd
=14	=14	=14	=14	=14	=14
1IV	D:maj	38.848	.	voice	1D 1f# 1a
=15	=15	=15	=15	=15	=15
2I	A:maj	41.792	.	voice	2A 2cc# 2ee
2-VII	G:maj	43.264	.	voice	2G 2b 2dd
=16	=16	=16	=16	=16	=16
2IV	D:maj	44.736	.	voice	2D 2f# 2a
2I	A:maj	46.208	.	voice	2A 2cc# 2ee
=17	=17	=17	=17	=17	=17
2I	A:maj	47.68	newline	voice	2A 2cc# 2ee
2-VII	G:maj	49.173	.	voice	2G 2b 2dd
=18	=18	=18	=18	=18	=18
1IV	D:maj	50.665	.	voice	1D 1f# 1a
=19	=19	=19	=19	=19	=19
2I	A:maj	53.649	.	voice	2A 2cc# 2ee
2-VII	G:maj	55.142	.	voice	2G 2b 2dd
=20	=20	=20	=20	=20	=20
4IV	D:maj	56.634	.	voice	4D 4f# 4a
4ii	B:min	57.38	.	voice	4B 4dd 4ff#
2I	A:maj	58.126	.	voice	2A 2cc# 2ee
=21	=21	=21	=21	=21	=21
*M2/4	*M2/4	*M2/4	*M2/4	*M2/4	*M2/4
2I	A:maj	59.618	.	voice	2A 2cc# 2ee
=22	=22	=22	=22	=22	=22
*>B_bridge	*>B_bridge	*>B_bridge	*>B_bridge	*>B_bridge	*>B_bridge
*D:	*D:	*	*	*	*D:
*M4/4	*M4/4	*M4/4	*M4/4	*M4/4	*M4/4
2IV	G:maj	61.111	newline	voice	2G 2b 2dd
2I	D:maj	62.57	.	voice	2D 2f# 2a
=23	=23	=23	=23	=23	=23
2IV	G:maj	64.029	.	voice	2G 2b 2dd
2V	A:maj	65.488	.	voice	2A 2cc# 2ee
=24	=24	=24	=24	=24	=24
2IV	G:maj	66.947	.	voice	2G 2b 2dd
2I	D:maj	68.406	.	voice	2D 2f# 2a
=25	=25	=25	=25	=25	=25
2IV	G:maj	69.865	.	voice	2G 2b 2dd
2V	A:maj	71.324	.	voice	2A 2cc# 2ee
=26	=26	=26	=26	=26	=26
2IV	G:maj	72.783	newline	voice	2G 2b 2dd
2I	D:maj	74.261	.	voice	2D 2f# 2a
=27	=27	=27	=27	=27	=27
*M2/4	*M2/4	*M2/4	*M2/4	*M2/4	*M2/4
2IV	G:maj	75.738	.	voice	2G 2b 2dd
=28	=28	=28	=28	=28	=28
*M4/4	*M4/4	*M4/4	*M4/4	*M4/4	*M4/4
1V	A:maj	77.215	.	voice	1A 1cc# 1ee
=29	=29	=29	=29	=29	=29
1V	A:maj	80.17	.	voice	1A 1cc# 1ee
=30	=30	=30	=30	=30	=30
*>C_chorus	*>C_chorus	*>C_chorus	*>C_chorus	*>C_chorus	*>C_chorus
2I	D:maj	83.124	newline	voice	2D 2f# 2a
2IV	G:maj	84.585	.	voice	2G 2b 2dd
=31	=31	=31	=31	=31	=31
1V	A:maj	86.046	.	voice	1A 1cc# 1ee
=32	=32	=32	=32	=32	=32
2I	D:maj	88.968	.	voice	2D 2f# 2a
2IV	G:maj	90.429	.	voice	2G 2b 2dd
=33	=33	=33	=33	=33	=33
1V	A:maj	91.889	.	voice	1A 1cc# 1ee
=34	=34	=34	=34	=34	=34
2I	D:maj	94.811	newline	voice	2D 2f# 2a
2IV	G:maj	95.542	.	voice	2G 2b 2dd
=35	=35	=35	=35	=35	=35
1V	A:maj	96.272	.	voice	1A 1cc# 1ee
=36	=36	=36	=36	=36	=36
2I	D:maj	97.733	.	voice	2D 2f# 2a
2IV	G:maj	98.463	.	voice	2G 2b 2dd
=37	=37	=37	=37	=37	=37
1V	A:maj	99.193	.	voice	1A 1cc# 1ee
=38	=38	=38	=38	=38	=38
*>A_interlude	*>A_interlude	*>A_interlude	*>A_interlude	*>A_interlude	*>A_interlude
*A:	*A:	*	*	*	*A:
2I	A:maj	100.654	newline	voice	2A 2cc# 2ee
2-VII	G:maj	102.14	.	voice	2G 2b 2dd
=39	=39	=39	=39	=39	=39
1IV	D:maj	103.626	.	voice	1D 1f# 1a
=40	=40	=40	=40	=40	=40
2I	A:maj	106.598	.	voice	2A 2cc# 2ee
2-VII	G:maj	108.084	.	voice	2G 2b 2dd
=41	=41	=41	=41	=41	=41
2IV	D:maj	109.569	.	voice	2D 2f# 2a
2I	A:maj	111.055	.	voice	2A 2cc# 2ee
=42	=42	=42	=42	=42	=42
*>A_verse	*>A_verse	*>A_verse	*>A_verse	*>A_verse	*>A_verse
2I	A:maj	112.541	newline	voice	2A 2cc# 2ee
2-VII	G:maj	114.011	.	voice	2G 2b 2dd
=43	=43	=43	=43	=43	=43
1IV	D:maj	115.481	.	voice	1D 1f# 1a
=44	=44	=44	=44	=44	=44
2I	A:maj	118.421	.	voice	2A 2cc# 2ee
2-VII	G:maj	119.891	.	voice	2G 2b 2dd
=45	=45	=45	=45	=45	=45
2IV	D:maj	121.361	.	voice	2D 2f# 2a
2I	A:maj	122.831	.	voice	2A 2cc# 2ee
=46	=46	=46	=46	=46	=46
2I	A:maj	124.301	newline	voice	2A 2cc# 2ee
2-VII	G:maj	125.772	.	voice	2G 2b 2dd
=47	=47	=47	=47	=47	=47
1IV	D:maj	127.244	.	voice	1D 1f# 1a
=48	=48	=48	=48	=48	=48
2I	A:maj	130.186	.	voice	2A 2cc# 2ee
2-VII	G:maj	131.657	.	voice	2G 2b 2dd
=49	=49	=49	=49	=49	=49
*M2/4	*M2/4	*M2/4	*M2/4	*M2/4	*M2/4
2IV	D:maj	133.128	.	voice	2D 2f# 2a
=50	=50	=50	=50	=50	=50
*M4/4	*M4/4	*M4/4	*M4/4	*M4/4	*M4/4
1I	A:maj	134.6	.	voice	1A 1cc# 1ee
=51	=51	=51	=51	=51	=51
2I	A:maj	137.542	newline	voice	2A 2cc# 2ee
2-VII	G:maj	139.01	.	voice	2G 2b 2dd
=52	=52	=52	=52	=52	=52
1IV	D:maj	140.479	.	voice	1D 1f# 1a
=53	=53	=53	=53	=53	=53
2I	A:maj	143.415	.	voice	2A 2cc# 2ee
2-VII	G:maj	144.883	.	voice	2G 2b 2dd
=54	=54	=54	=54	=54	=54
2IV	D:maj	146.351	.	voice	2D 2f# 2a
2I	A:maj	147.819	.	voice	2A 2cc# 2ee
=55	=55	=55	=55	=55	=55
2I	A:maj	149.288	newline	voice	2A 2cc# 2ee
2-VII	G:maj	150.769	.	voice	2G 2b 2dd
=56	=56	=56	=56	=56	=56
1IV	D:maj	152.249	.	voice	1D 1f# 1a
=57	=57	=57	=57	=57	=57
2I	A:maj	155.211	.	voice	2A 2cc# 2ee
2-VII	G:maj	156.692	.	voice	2G 2b 2dd
=58	=58	=58	=58	=58	=58
4IV	D:maj	158.173	.	voice	4D 4f# 4a
4ii	B:min	158.914	.	voice	4B 4dd 4ff#
2I	A:maj	159.654	.	voice	2A 2cc# 2ee
=59	=59	=59	=59	=59	=59
*M2/4	*M2/4	*M2/4	*M2/4	*M2/4	*M2/4
2I	A:maj	161.135	.	voice	2A 2cc# 2ee
=60	=60	=60	=60	=60	=60
*>B_bridge	*>B_bridge	*>B_bridge	*>B_bridge	*>B_bridge	*>B_bridge
*D:	*D:	*	*	*	*D:
*M4/4	*M4/4	*M4/4	*M4/4	*M4/4	*M4/4
2IV	G:maj	162.616	newline	voice	2G 2b 2dd
2I	D:maj	164.074	.	voice	2D 2f# 2a
=61	=61	=61	=61	=61	=61
2IV	G:maj	165.532	.	voice	2G 2b 2dd
2V	A:maj	166.99	.	voice	2A 2cc# 2ee
=62	=62	=62	=62	=62	=62
2IV	G:maj	168.448	.	voice	2G 2b 2dd
2I	D:maj	169.906	.	voice	2D 2f# 2a
=63	=63	=63	=63	=63	=63
2IV	G:maj	171.364	.	voice	2G 2b 2dd
2V	A:maj	172.822	.	voice	2A 2cc# 2ee
=64	=64	=64	=64	=64	=64
2IV	G:maj	174.28	newline	voice	2G 2b 2dd
2I	D:maj	175.751	.	voice	2D 2f# 2a
=65	=65	=65	=65	=65	=65
*M2/4	*M2/4	*M2/4	*M2/4	*M2/4	*M2/4
2IV	G:maj	177.221	.	voice	2G 2b 2dd
=66	=66	=66	=66	=66	=66
*M4/4	*M4/4	*M4/4	*M4/4	*M4/4	*M4/4
1V	A:maj	178.692	.	voice	1A 1cc# 1ee
=67	=67	=67	=67	=67	=67
1V	A:maj	181.634	.	voice	1A 1cc# 1ee
=68	=68	=68	=68	=68	=68
*>C_chorus	*>C_chorus	*>C_chorus	*>C_chorus	*>C_chorus	*>C_chorus
2I	D:maj	184.575	newline	voice	2D 2f# 2a
2IV	G:maj	186.021	.	voice	2G 2b 2dd
=69	=69	=69	=69	=69	=69
1V	A:maj	187.467	.	voice	1A 1cc# 1ee
=70	=70	=70	=70	=70	=70
2I	D:maj	190.358	.	voice	2D 2f# 2a
2IV	G:maj	191.803	.	voice	2G 2b 2dd
=71	=71	=71	=71	=71	=71
1V	A:maj	193.249	.	voice	1A 1cc# 1ee
=72	=72	=72	=72	=72	=72
2I	D:maj	196.14	newline	voice	2D 2f# 2a
2IV	G:maj	196.893	.	voice	2G 2b 2dd
=73	=73	=73	=73	=73	=73
1V	A:maj	197.646	.	voice	1A 1cc# 1ee
=74	=74	=74	=74	=74	=74
2I	D:maj	199.151	.	voice	2D 2f# 2a
2IV	G:maj	199.904	.	voice	2G 2b 2dd
=75	=75	=75	=75	=75	=75
1V	A:maj	200.656	.	voice	1A 1cc# 1ee
=76	=76	=76	=76	=76	=76
*>A_interlude	*>A_interlude	*>A_interlude	*>A_interlude	*>A_interlude	*>A_interlude
*A:	*A:	*	*	*	*A:
2I	A:maj	202.162	newline	voice	2A 2cc# 2ee
2-VII	G:maj	203.621	.	voice	2G 2b 2dd
=77	=77	=77	=77	=77	=77
1IV	D:maj	205.08	.	voice	1D 1f# 1a
=78	=78	=78	=78	=78	=78
2I	A:maj	207.998	.	voice	2A 2cc# 2ee
2-VII	G:maj	209.457	.	voice	2G 2b 2dd
=79	=79	=79	=79	=79	=79
2IV	D:maj	210.916	.	voice	2D 2f# 2a
2I	A:maj	212.375	.	voice	2A 2cc# 2ee
=80	=80	=80	=80	=80	=80
*>A_solo	*>A_solo	*>A_solo	*>A_solo	*>A_solo	*>A_solo
2I	A:maj	213.834	newline	guitar	2A 2cc# 2ee
2-VII	G:maj	215.307	.	guitar	2G 2b 2dd
=81	=81	=81	=81	=81	=81
1IV	D:maj	216.779	.	guitar	1D 1f# 1a
=82	=82	=82	=82	=82	=82
2I	A:maj	219.723	.	guitar	2A 2cc# 2ee
2-VII	G:maj	221.196	.	guitar	2G 2b 2dd
=83	=83	=83	=83	=83	=83
2IV	D:maj	222.668	.	guitar	2D 2f# 2a
2I	A:maj	224.14	.	guitar	2A 2cc# 2ee
=84	=84	=84	=84	=84	=84
2I	A:maj	225.612	newline	guitar	2A 2cc# 2ee
2-VII	G:maj	227.073	.	guitar	2G 2b 2dd
=85	=85	=85	=85	=85	=85
1IV	D:maj	228.533	.	guitar	1D 1f# 1a
=86	=86	=86	=86	=86	=86
2I	A:maj	231.453	.	guitar	2A 2cc# 2ee
2-VII	G:maj	232.914	.	guitar	2G 2b 2dd
=87	=87	=87	=87	=87	=87
2IV	D:maj	234.374	.	guitar	2D 2f# 2a
2I	A:maj	235.834	.	guitar	2A 2cc# 2ee
=88	=88	=88	=88	=88	=88
*>A_verse	*>A_verse	*>A_verse	*>A_verse	*>A_verse	*>A_verse
2I	A:maj	237.294	newline	voice	2A 2cc# 2ee
2-VII	G:maj	238.752	.	voice	2G 2b 2dd
=89	=89	=89	=89	=89	=89
1IV	D:maj	240.209	.	voice	1D 1f# 1a
=90	=90	=90	=90	=90	=90
2I	A:maj	243.124	.	voice	2A 2cc# 2ee
2-VII	G:maj	244.581	.	voice	2G 2b 2dd
=91	=91	=91	=91	=91	=91
2IV	D:maj	246.038	.	voice	2D 2f# 2a
2I	A:maj	247.496	.	voice	2A 2cc# 2ee
=92	=92	=92	=92	=92	=92
2I	A:maj	248.953	newline	voice	2A 2cc# 2ee
2-VII	G:maj	250.421	.	voice	2G 2b 2dd
=93	=93	=93	=93	=93	=93
1IV	D:maj	251.89	.	voice	1D 1f# 1a
=94	=94	=94	=94	=94	=94
2I	A:maj	254.827	.	voice	2A 2cc# 2ee
2-VII	G:maj	256.295	.	voice	2G 2b 2dd
=95	=95	=95	=95	=95	=95
*M2/4	*M2/4	*M2/4	*M2/4	*M2/4	*M2/4
2IV	D:maj	257.763	.	voice	2D 2f# 2a
=96	=96	=96	=96	=96	=96
*M4/4	*M4/4	*M4/4	*M4/4	*M4/4	*M4/4
1I	A:maj	259.232	.	voice	1A 1cc# 1ee
=97	=97	=97	=97	=97	=97
*>A_outro	*>A_outro	*>A_outro	*>A_outro	*>A_outro	*>A_outro
2I	A:maj	262.169	newline	voice	2A 2cc# 2ee
2-VII	G:maj	263.643	.	voice	2G 2b 2dd
=98	=98	=98	=98	=98	=98
1IV	D:maj	265.117	.	voice	1D 1f# 1a
=99	=99	=99	=99	=99	=99
2I	A:maj	268.065	.	voice	2A 2cc# 2ee
2-VII	G:maj	269.538	.	voice	2G 2b 2dd
=100	=100	=100	=100	=100	=100
1IV	D:maj	271.012	.	voice	1D 1f# 1a
1r;	N	273.96	.	r	1r;
1r;	N	279.119	.	r	1r;
1r;	N	280.569	.	r	1r;
*-	*-	*-	*-	*-	*-
!!!OTL: Southern Cross
!!!COC: Crosby, Stills & Nash
!!!BillboardChartDate: 1982/10/09
!!!BillboardPeak: 18
!!!BillboardWeeksOnChart: 17
!!!SampleTargetRank: 36
!!!SampleActualRank: 36
!!!SampleID#: 0589
!!!RDF**harmony: **recip + pitch class of root + harmonic quality
!!!RDF**harte: Chris Harte's syntax, used by MIREX
!!!RDF**phrase: newline = linebreak in original McGill transcription
!!!RDF**timestamp: McGill audio timestamp in seconds
!!!RDF**leadinstrument: original McGill primary instrumentation annotation
!!!RDT: 2017/01/12/
!!!ENC: Nathaniel Condit-Schultz
!!!EST: Awating manual error checking and editing.
